X:14
T:Leg of the Duck
Z: id:dc-slide-15
M:6/8
L:1/8
K:D Major
e|fga efg|fef dBA|Bee e2d|Bee e3|!
fga efg|fef dBA|Bdd d2A|Bdd d2:|!
e|fdd edd|f3 edA|Bee e2d|Bee e3|!
fdd edd|f3 edA|Bdd d2A|Bdd d2:|!

